X:208
T:Connaught Mans Rambles, The
C:Joe Buchanan's Scottish Tome - Page 282.2
I:282 2
Z:Carl Allison
R:Jig
L:1/8
M:6/8
K:D
A | DGG dAA | BGG dAA | FAA Afe | dcc d2 A |
DGG dAA | BGG def | afe f2 e | dBB B3 :|
g | fbb faa | fbb afe | fbb faa | fed e3 |
fbb faa | fbb afe | afe f2 e | dBB B3 :|

